assets/svg/dobrycola.svg

<svg width="50" height="50" viewBox="0 0 50 50" fill="none" xmlns="http://www.w3.org/2000/svg">
<rect width="50" height="50" fill="#FF0000"/>
<path d="M45.3612 22.0206C45.4511 22.0236 45.5394 22.0427 45.6211 22.077C45.6969 22.1093 45.7655 22.1543 45.8232 22.2098C45.8804 22.2669 45.9256 22.3334 45.9568 22.4057C45.986 22.4836 46.0006 22.5655 46 22.648C45.9959 22.7305 45.9752 22.8115 45.9387 22.887C45.9046 22.9592 45.8556 23.0246 45.7944 23.0795C45.7322 23.1322 45.6599 23.1738 45.5814 23.2023C45.4963 23.2324 45.4056 23.246 45.3146 23.2422C45.2262 23.2399 45.1393 23.2219 45.0582 23.1891C44.9792 23.1574 44.908 23.1111 44.8491 23.053C44.7907 22.9939 44.7455 22.9252 44.7155 22.8505C44.6828 22.7734 44.6679 22.6908 44.6723 22.6081C44.6723 22.5263 44.6933 22.4455 44.7336 22.3725C44.7689 22.3011 44.8193 22.2368 44.8814 22.1832C44.9444 22.1299 45.0179 22.0882 45.0979 22.0604C45.1816 22.03 45.2714 22.0164 45.3612 22.0206ZM45.3612 22.1268C45.2909 22.1243 45.2209 22.1356 45.1556 22.16C45.0932 22.1852 45.036 22.22 44.9862 22.2629C44.9374 22.308 44.8984 22.3609 44.8707 22.4189C44.8435 22.4813 44.8289 22.5476 44.8275 22.6148C44.8234 22.6825 44.8345 22.7503 44.8599 22.814C44.8847 22.8731 44.9199 22.9281 44.9646 22.9766C45.0098 23.0239 45.0649 23.0623 45.1267 23.0895C45.1924 23.1178 45.2638 23.1325 45.3362 23.1326C45.405 23.1365 45.4741 23.1263 45.5383 23.1028C45.6013 23.0787 45.659 23.0438 45.7077 22.9998C45.7553 22.9546 45.7932 22.9017 45.8197 22.8438C45.8472 22.7816 45.8617 22.7152 45.8629 22.648C45.8673 22.5802 45.8562 22.5124 45.8305 22.4488C45.8084 22.3881 45.7739 22.3318 45.7293 22.2828C45.6827 22.238 45.6275 22.2009 45.5672 22.1733C45.4998 22.1424 45.4257 22.1265 45.3504 22.1268H45.3612Z" fill="white"/>
<path d="M45.3653 22.7011H45.2171V22.9567H45.0765V22.2928H45.311C45.5455 22.2928 45.6322 22.3526 45.6322 22.492C45.6327 22.5292 45.6211 22.5656 45.5983 22.5965C45.5759 22.6273 45.5435 22.6511 45.5059 22.6646L45.6645 22.9468H45.5059L45.3653 22.7011ZM45.2171 22.4024V22.6016H45.3326C45.4408 22.6016 45.4878 22.565 45.4878 22.502C45.4878 22.4389 45.4192 22.4024 45.3256 22.4024H45.2171Z" fill="white"/>
<path d="M8.68332 27.79H6.76742C7.23691 25.489 7.51913 23.1588 7.61171 20.8191H8.69414C8.70858 23.249 8.63642 25.4266 8.68332 27.79ZM14.4563 28.0423C13.9584 28.0423 13.5579 27.6739 13.5579 25.6556C13.5579 23.6374 13.8826 23.1792 14.4058 23.1792C14.929 23.1792 15.3042 23.5477 15.3042 25.566C15.3042 27.5842 14.9903 28.0423 14.4671 28.0423H14.4563ZM20.4746 23.1792C21.171 23.1792 21.622 23.5477 21.622 25.566C21.622 27.5842 21.2612 28.0423 20.7489 28.0423C20.2365 28.0423 19.8035 27.6971 19.8035 25.0846C19.8035 24.3942 19.7783 23.8232 19.8035 23.3419C20.0079 23.2345 20.2393 23.1784 20.4746 23.1792ZM26.3306 28.2946C26.2468 28.2984 26.1629 28.2905 26.0816 28.2714V24.0988C26.0816 23.5477 26.3053 23.1792 26.7816 23.1792C27.2579 23.1792 27.7522 23.5112 27.7522 25.8183C27.7414 27.8598 27.2795 28.2946 26.3306 28.2946ZM32.7603 28.1552C32.3381 28.1552 32.1902 27.8232 32.1902 27.239V25.1743C33.1608 25.0382 33.5829 25.566 33.5829 26.7577C33.5829 27.8133 33.2366 28.1552 32.7603 28.1552ZM33.3341 24.0291C32.9353 24.0201 32.5411 24.1071 32.1902 24.2813V22.034H30.1696C30.2201 22.366 30.2454 23.1793 30.2454 24.2349V26.6349C30.2454 28.3544 30.9923 29.2905 32.6881 29.2905C34.207 29.2905 35.5531 28.4174 35.5531 26.4921C35.5531 24.9452 34.5967 24.0291 33.3341 24.0291ZM26.8393 21.8979C25.2157 21.8979 24.1333 23.0199 24.1333 24.7394V31H26.1538C26.0928 30.3521 26.0675 29.7017 26.078 29.0515C26.3571 29.2023 26.6785 29.2739 27.0017 29.2573C28.2718 29.2573 29.7186 28.5701 29.7186 25.8183C29.7222 22.5386 28.463 21.8979 26.8538 21.8979H26.8393ZM20.7055 21.2772C21.6761 20.9452 22.8488 21.0017 23.473 20.7261V19C22.8814 19.2225 22.2621 19.3764 21.6292 19.4581C19.5329 19.873 17.8155 20.8124 17.8155 24.9386C17.8155 28.517 19.2334 29.2971 20.702 29.2971C22.0983 29.2971 23.5668 28.4938 23.5668 25.5593C23.5668 22.5319 22.423 22.0042 21.3009 22.0042C20.7591 22.0203 20.2396 22.2066 19.8288 22.5319C19.9515 21.8747 20.1643 21.4598 20.7236 21.2772H20.7055ZM42.7403 19.9693C42.7403 19.4647 42.4877 19.1461 42.0187 19.1461C41.8787 19.1365 41.7396 19.1725 41.6256 19.2477C41.5112 19.3229 41.4296 19.4326 41.3946 19.5577C41.3132 19.4355 41.1997 19.3339 41.065 19.262C40.9302 19.1901 40.778 19.1503 40.6222 19.1461C40.5254 19.149 40.43 19.1698 40.3419 19.2075C40.2538 19.2451 40.1748 19.2986 40.1098 19.365C40.045 19.4313 39.9951 19.509 39.9633 19.5935C39.9318 19.6779 39.919 19.7673 39.926 19.8564C39.926 20.6133 41.0084 21.2772 41.2718 21.6656C41.6363 21.4133 42.7584 20.6133 42.7584 19.9693H42.7403ZM44.1835 29.1212C44.1178 28.3881 44.0928 27.6525 44.1076 26.917V22.034H42.0657C42.1433 22.7654 42.1771 23.5001 42.1666 24.2349V27.2988C41.9502 27.4855 41.6661 27.592 41.3692 27.5975C40.6692 27.5975 40.5467 27.2656 40.5467 26.5652V22.034H38.5006C38.5919 22.7645 38.6255 23.5 38.6018 24.2349V27.3983C38.6018 28.5701 39.0997 29.2573 40.3446 29.2573C41.2178 29.2573 41.842 28.5701 42.1666 28.1319V29.1278L44.1835 29.1212ZM37.8441 22.034H35.8234C35.8742 22.366 35.8993 23.1793 35.8993 24.2349V29.1212H37.9415C37.8534 28.3894 37.8208 27.6529 37.8441 26.917V22.034ZM14.413 21.8979C13.0167 21.8979 11.5987 22.6979 11.5987 25.6556C11.6023 28.683 13.0203 29.2905 14.4671 29.2905C15.914 29.2905 17.2779 28.4772 17.2779 25.5427C17.2779 22.5154 15.8635 21.8979 14.4166 21.8979H14.413ZM11.5987 27.79H10.6786C10.6786 24.9452 10.6533 21.6456 10.7544 19.4647H7.71274C6.91405 19.4868 6.11466 19.4569 5.32057 19.3751V20.7959H6.0927C5.92179 23.1469 5.57215 25.484 5.04635 27.79H4C4.07732 28.5214 4.10985 29.2562 4.09742 29.9909V30.9867H5.6922C5.63129 30.3621 5.6072 29.7349 5.62004 29.1079H10.0616V30.9867H11.6817C11.6348 30.6548 11.6095 29.8415 11.6095 28.7859L11.5987 27.79Z" fill="white"/>
</svg>

<svg xmlns="http://www.w3.org/2000/svg" width="50" height="50" fill="none" viewBox="0 0 50 50"><path fill="red" d="M0 0h50v50H0z"/><path fill="#fff" d="M45.361 22.02q.136.006.26.057a.63.63 0 0 1 .336.329q.044.118.043.242a.62.62 0 0 1-.419.554.7.7 0 0 1-.266.04.7.7 0 0 1-.257-.053.613.613 0 0 1-.386-.581q0-.125.062-.236a.6.6 0 0 1 .147-.189.7.7 0 0 1 .217-.123.7.7 0 0 1 .263-.04m0 .107a.53.53 0 0 0-.375.136.5.5 0 0 0-.115.156.5.5 0 0 0-.044.196.5.5 0 0 0 .033.199q.037.09.105.163a.5.5 0 0 0 .371.156.51.51 0 0 0 .484-.29.5.5 0 0 0 .043-.195.503.503 0 0 0-.134-.365.6.6 0 0 0-.162-.11.5.5 0 0 0-.217-.046z"/><path fill="#fff" d="M45.365 22.701h-.148v.256h-.14v-.664h.234c.234 0 .321.06.321.199a.17.17 0 0 1-.034.104.2.2 0 0 1-.092.069l.158.282h-.158zm-.148-.299v.2h.116c.108 0 .155-.037.155-.1s-.069-.1-.162-.1zM8.683 27.79H6.767c.47-2.301.752-4.631.845-6.97h1.082c.015 2.429-.058 4.607-.01 6.97m5.773.252c-.498 0-.898-.368-.898-2.386s.325-2.477.848-2.477.898.369.898 2.387-.314 2.476-.837 2.476zm6.019-4.863c.696 0 1.147.369 1.147 2.387s-.36 2.476-.873 2.476c-.512 0-.945-.345-.945-2.957 0-.69-.026-1.262 0-1.743.204-.107.435-.164.67-.163m5.856 5.116a1 1 0 0 1-.25-.024V24.1c0-.551.224-.92.7-.92.477 0 .971.332.971 2.64-.01 2.04-.473 2.476-1.421 2.476m6.43-.14c-.423 0-.57-.332-.57-.916v-2.065c.97-.136 1.392.392 1.392 1.584 0 1.055-.346 1.397-.823 1.397m.573-4.126a2.45 2.45 0 0 0-1.144.252v-2.247h-2.02c.05.332.075 1.145.075 2.2v2.4c0 1.72.747 2.657 2.443 2.657 1.519 0 2.865-.874 2.865-2.799 0-1.547-.956-2.463-2.219-2.463m-6.495-2.131c-1.623 0-2.706 1.122-2.706 2.841V31h2.02a18 18 0 0 1-.075-1.948c.28.15.6.222.924.205 1.27 0 2.717-.687 2.717-3.439.003-3.28-1.256-3.92-2.865-3.92zm-6.133-.62c.97-.333 2.143-.276 2.767-.552V19a8.2 8.2 0 0 1-1.844.458c-2.096.415-3.814 1.354-3.814 5.48 0 3.579 1.418 4.36 2.887 4.36 1.396 0 2.865-.804 2.865-3.739 0-3.027-1.144-3.555-2.266-3.555a2.5 2.5 0 0 0-1.472.528c.122-.657.335-1.072.895-1.255zm22.034-1.309c0-.504-.252-.823-.721-.823a.64.64 0 0 0-.393.102.55.55 0 0 0-.231.31.9.9 0 0 0-.33-.296 1 1 0 0 0-.443-.116.8.8 0 0 0-.28.061.7.7 0 0 0-.232.158.7.7 0 0 0-.147.229.6.6 0 0 0-.037.262c0 .757 1.082 1.421 1.346 1.81.364-.253 1.486-1.053 1.486-1.697zm1.444 9.152a20 20 0 0 1-.076-2.204v-4.883h-2.042q.116 1.098.1 2.2V27.3c-.216.186-.5.293-.797.299-.7 0-.822-.332-.822-1.033v-4.531H38.5c.09.73.125 1.466.1 2.2v3.164c0 1.172.499 1.86 1.744 1.86.873 0 1.497-.688 1.822-1.126v.996zm-6.34-7.087h-2.02c.05.332.075 1.145.075 2.2v4.887h2.042a14.6 14.6 0 0 1-.097-2.204zm-23.431-.136c-1.396 0-2.814.8-2.814 3.758.003 3.027 1.421 3.635 2.868 3.635s2.81-.814 2.81-3.748c0-3.028-1.414-3.645-2.86-3.645zm-2.814 5.892h-.92c0-2.845-.026-6.144.075-8.325H7.713a18 18 0 0 1-2.392-.09v1.42h.772a47 47 0 0 1-1.047 6.995H4q.116 1.098.097 2.2v.997h1.595a16 16 0 0 1-.072-1.88h4.442v1.88h1.62c-.047-.332-.072-1.145-.072-2.201z"/></svg>
